src/images/community/build.svg

<svg fill="none" height="32" viewBox="0 0 32 32" width="32" xmlns="http://www.w3.org/2000/svg"><path d="m24.6168 11.875c-.3759.3734-.8842.583-1.4141.583-.5298 0-1.0382-.2096-1.4141-.583l-1.6606-1.6606c-.3738-.37586-.5836-.88436-.5836-1.41442s.2098-1.03856.5836-1.41438l3.7588-3.76062c.0074-.00715.013-.01604.0161-.02586.0032-.00982.0039-.02027.002-.03042-.0018-.01016-.0062-.01969-.0126-.02775-.0065-.00807-.0148-.01441-.0243-.01847-2.4262-1.04-5.5719-.51-7.5694 1.47312-1.9112 1.89688-2.02 4.75001-1.32 7.24.0995.3539.0993.7285-.0007 1.0823-.0999.3538-.2956.6731-.5655.9227l-10.41251 9.5094c-.30721.2724-.55546.6047-.72948.9766-.17403.3718-.27016.7754-.28248 1.1857-.01232.4104.05943.819.21084 1.2006.15141.3817.37928.7283.66959 1.0186.29032.2903.63695.5182 1.01859.6696.38163.1514.7902.2232 1.20058.2108.41039-.0123.81392-.1084 1.18578-.2824.37187-.1741.7042-.4223.97658-.7295l9.61621-10.4375c.2465-.2654.5605-.4587.9084-.5592s.7166-.1045 1.0666-.0114c2.4713.6618 5.2838.5375 7.17-1.3244 2.0307-2 2.4688-5.535 1.4844-7.55815-.0044-.00884-.0109-.0165-.0189-.02235-.0079-.00586-.0172-.00974-.0269-.01133-.0098-.00158-.0198-.00083-.0292.0022s-.018.00825-.025.01523z" stroke="#000" stroke-linecap="round" stroke-miterlimit="10" stroke-width="2"/><path d="m6 27c.55228 0 1-.4477 1-1s-.44772-1-1-1-1 .4477-1 1 .44772 1 1 1z" fill="#000"/></svg>

<svg width="32" height="32" viewBox="0 0 32 32" fill="none" xmlns="http://www.w3.org/2000/svg">
<path d="M24.6168 11.875C24.2409 12.2484 23.7326 12.458 23.2027 12.458C22.6729 12.458 22.1645 12.2484 21.7886 11.875L20.128 10.2144C19.7542 9.83854 19.5444 9.33004 19.5444 8.79998C19.5444 8.26992 19.7542 7.76142 20.128 7.3856L23.8868 3.62498C23.8942 3.61783 23.8998 3.60894 23.9029 3.59912C23.9061 3.5893 23.9068 3.57885 23.9049 3.5687C23.9031 3.55854 23.8987 3.54901 23.8923 3.54095C23.8858 3.53288 23.8775 3.52654 23.868 3.52248C21.4418 2.48248 18.2961 3.01248 16.2986 4.9956C14.3874 6.89248 14.2786 9.74561 14.9786 12.2356C15.0781 12.5895 15.0779 12.9641 14.9779 13.3179C14.878 13.6717 14.6823 13.991 14.4124 14.2406L3.99989 23.75C3.69268 24.0224 3.44443 24.3547 3.27041 24.7266C3.09638 25.0984 3.00025 25.502 2.98793 25.9123C2.97561 26.3227 3.04736 26.7313 3.19877 27.1129C3.35018 27.4946 3.57805 27.8412 3.86836 28.1315C4.15868 28.4218 4.50531 28.6497 4.88695 28.8011C5.26858 28.9525 5.67715 29.0243 6.08753 29.0119C6.49792 28.9996 6.90145 28.9035 7.27331 28.7295C7.64518 28.5554 7.97751 28.3072 8.24989 28L17.8661 17.5625C18.1126 17.2971 18.4266 17.1038 18.7745 17.0033C19.1224 16.9028 19.4911 16.8988 19.8411 16.9919C22.3124 17.6537 25.1249 17.5294 27.0111 15.6675C29.0418 13.6675 29.4799 10.1325 28.4955 8.10935C28.4911 8.10051 28.4846 8.09285 28.4766 8.087C28.4687 8.08114 28.4594 8.07726 28.4497 8.07567C28.4399 8.07409 28.4299 8.07484 28.4205 8.07787C28.4111 8.0809 28.4025 8.08612 28.3955 8.0931L24.6168 11.875Z" stroke="black" stroke-width="2" stroke-miterlimit="10" stroke-linecap="round"/>
<path d="M6 27C6.55228 27 7 26.5523 7 26C7 25.4477 6.55228 25 6 25C5.44772 25 5 25.4477 5 26C5 26.5523 5.44772 27 6 27Z" fill="black"/>
</svg>
